X: 31385
T: Paddy O'Snap's
R: slip jig
M: 9/8
K: Dmajor
|:f2 d dcd fed|g2e efd cBA|f2 d dcd fed|efg ABc d2e:|
|:a2A ABG FAd|B2 e efd efg|a2 A ABG FAd|efg ABc d2e:|

